X: 551
T: Chuan menzi
L: 1/8
M: 4/4
K: A
Be2e d> cB2 [I:setbarnb 1]| 
Be2e d> cB2 | 
ce2B c B A G | 
F> E F GE4 | 
B cB2c> A G F | 
E2e2d> cB2 | 
ce2B c B A3/ G/ | 
F> E F/ E/ F/ A/E4 |]

@@@ Tune index: 9425
